X: 26055
T: McCarthy's
R: reel
M: 4/4
K: Adorian
|:cB|AD~D2 FGAB|c2cB cAGc|AD~D2 FGAB|cAGE D2cB|
AD~D2 FGAB|c2cB cdeg|fage d^cAG|1 FAGE D2:|2 FAGE D4||
d2fd afdf|g2fg edB^c|d2fd afdf|g2fg Beef|
gfe^c d2fd|~d2fd e^cAg|fage d^cAG|1 FAGE D4:|2 FAGE D2z2||

